X: 1
T: Kate Dalrymple #3   [A]
T: Jinglin' Johnnie
R: reel
O: trad.
Z: 2016 John Chambers <jc:trillian.mit.edu>
S: handwritten MS in the Concord Slow Scottish Jam collection
L: 1/8
M: C|
K: A
cB\
"A"|: "A"A2Ac "E7"B2Bc |  "A"A2Ac "E7"B2Bc | "A"A2ag "D"fedc | "E7"B2e2 "A"c2A2 :|
"B"[| "A"e2ef     edcd |  "A"e2a2     e2c2 | "A"e2ef    edcd |  "A"e2a2    e2c2 |
    | "D"d2fd  "A"c2ec | "Bm"B2Bc "E7"edcB | "A"A2ag "D"fedc | "E7"B2e2 "A"c2A2 |]
